X:364
T:Nigel's Compliments to Manuel
C:Nigel Gatherer
Z:Nigel Gatherer
L:1/8
M:2/4
K:G
G/G/G B>A|GB AB|G/G/G BG|EA D2|
G/G/G B>A|GB AB|GE    DE|G2 G2||
BD    GB |AD BA|G/G/G BG|EA D2|
BD    GB |AD BA|GE    DE|G2 G2|]
<end>
<start>
